packages/amis-editor/src/icons/crud/share-link.svg

<svg class="icon" viewBox="0 0 1024 1024" version="1.1" xmlns="http://www.w3.org/2000/svg" p-id="2532" width="64" height="64"><path d="M938.666667 469.333333c-23.466667 0-42.666667 19.2-42.666667 42.666667l0 85.333333 0 320c0 12.8-8.533333 21.333333-21.333333 21.333333L106.666667 938.666667c-12.8 0-21.333333-8.533333-21.333333-21.333333l0-106.666667L85.333333 234.666667c0-12.8 8.533333-21.333333 21.333333-21.333333l362.666667 0c23.466667 0 42.666667-19.2 42.666667-42.666667 0-23.466667-19.2-42.666667-42.666667-42.666667L85.333333 128c-46.933333 0-85.333333 38.4-85.333333 85.333333l0 341.333333 0 256 0 128c0 46.933333 38.4 85.333333 85.333333 85.333333l810.666667 0c46.933333 0 85.333333-38.4 85.333333-85.333333l0-128L981.333333 597.333333l0-85.333333C981.333333 488.533333 962.133333 469.333333 938.666667 469.333333zM1011.2 162.133333l-149.333333-149.333333C855.466667 4.266667 844.8 0 832 0c-23.466667 0-42.666667 19.2-42.666667 42.666667 0 12.8 4.266667 23.466667 12.8 29.866667l83.2 83.2C554.666667 202.666667 298.666667 488.533333 298.666667 832c0 23.466667 19.2 42.666667 42.666667 42.666667s42.666667-19.2 42.666667-42.666667c0-290.133333 206.933333-533.333333 484.266667-586.666667l-66.133333 66.133333C793.6 317.866667 789.333333 328.533333 789.333333 341.333333c0 23.466667 19.2 42.666667 42.666667 42.666667 12.8 0 23.466667-4.266667 29.866667-12.8l149.333333-149.333333C1019.733333 215.466667 1024 204.8 1024 192 1024 179.2 1019.733333 168.533333 1011.2 162.133333z" p-id="2533"></path></svg>

<svg class="icon" viewBox="0 0 1024 1024" xmlns="http://www.w3.org/2000/svg" width="64" height="64"><path d="M938.667 469.333C915.2 469.333 896 488.533 896 512v405.333c0 12.8-8.533 21.334-21.333 21.334h-768c-12.8 0-21.334-8.534-21.334-21.334V234.667c0-12.8 8.534-21.334 21.334-21.334h362.666c23.467 0 42.667-19.2 42.667-42.666C512 147.2 492.8 128 469.333 128h-384C38.4 128 0 166.4 0 213.333v725.334C0 985.6 38.4 1024 85.333 1024H896c46.933 0 85.333-38.4 85.333-85.333V512c0-23.467-19.2-42.667-42.666-42.667zm72.533-307.2L861.867 12.8C855.467 4.267 844.8 0 832 0c-23.467 0-42.667 19.2-42.667 42.667 0 12.8 4.267 23.466 12.8 29.866l83.2 83.2C554.667 202.667 298.667 488.533 298.667 832c0 23.467 19.2 42.667 42.666 42.667S384 855.467 384 832c0-290.133 206.933-533.333 484.267-586.667l-66.134 66.134c-8.533 6.4-12.8 17.066-12.8 29.866C789.333 364.8 808.533 384 832 384c12.8 0 23.467-4.267 29.867-12.8L1011.2 221.867c8.533-6.4 12.8-17.067 12.8-29.867s-4.267-23.467-12.8-29.867z"/></svg>
